X: 72
T: No_163_Hair_Dance_Song_(a).krn
N: Derived from No_163_Hair_Dance_Song_(a).krn
%%abc-version 2.0
%%abcx-abcm2ps-target-version 5.9.1 (29 Sep 2008)
%%abc-creator hum2abc beta
%%abcx-conversion-date 2019/03/15 08:38:45
%%humdrum-veritas 2437464419
%%humdrum-veritas-data 316420617
%%linebreak <none>
%%barnumbers 0
L: 1/8
M: 3/4
K: C clef=bass
[K:clef=bass][M:3/4]C2(3CA,G,G,2 [I:setbarnb 2]| 
A,/G,3/ (3A,G,E,E,2 ||  
[M:2/4]C,2(3D,C,D, ||  
[M:3/4]C,2z4 ||  
[M:2/4]C,2(3D,C,B,, | 
C,2z2 ||  
[M:5/8]C,2(3D,C,C, C, ||  
[M:3/4]C4z2 :|]  
[M:2/4]E,2z2 ||  
[M:3/4]C,2(3C,C,C,C,2 :|]  
[M:2/4]C,2(3C,C,C, | 
E,2z2 | 
C4 |]  



